!!!COM: Robert Schumann
!!!CNT: Deutsch
!!!TXO: Deutsch
!!!OTL: Dichters Genesung
!!!LYR: Reinick
!!!OPR: Sechs Gedichte
!!!OPS: Op.36
!!!ONM: No. 5
!!!ENC: Ben Fuhrman
!!!YOR: Schumann Lieder - Max Friedlaender, ed.,
!!!YOR: New York: C. F. Peters, Vol. 2
!!!ODT: 1840/
!!NB: Vocal melody and text only encoded.
!!NB: First instance of melodic material only encoded.
**kern	**silbe
*clefG2	*
*k[f#]	*
*M4/4	*
!!created: 07/07/06 10:30
!!proofed and posted: 07/07/06 10:30
!!edit time: 90 minutes
=1	=1
2r	.
4r	.
{4b	{Und
=2	=2
4.a	wie-
8e	-der
4e	hatt'
8f#	ich
8f#	der
=3	=3
4g	Scho2n-
8.g	-sten
16g	ge-
8g}	-dacht,}
{8g	{die
8g	nur
8g	in
=4	=4
4f#	Tra2u-
8f#	-men
8f#	bis-
4e	-her
8.e	ich
16e	ge-
=5	=5
4d#	-se-
4f#}	-hen;}
4r	.
{4b	{es
=6	=6
4a	trieb
8.e	mich
16e	hin-
4e	-aus
8f#	in
8f#	die
=7	=7
4.g	lich-
8g	-te
8g}	Nacht,}
{8g	{durch
8g	stil-
8g	-le
=8	=8
4.f#	Gru2n-
8f#	-de
4.e	musst'
8e	ich
=9	=9
4d#	ge-
4f#}	-hen.}
4r	.
{8f#	{Da
8f#	auf
=10	=10
4.g	ein-
8g	-mal
4a	gla2nz-
8.a	-te
16a	das
=11	=11
2b}	Tal,}
{4b	{schau-
8b	-rig
8b	als
=12	=12
4b	wa2r'
8a	es
8a	ein
4g	Gei-
4f#	-ster-
=13	=13
2e}	-saal.}
4r	.
{4b	{Da
=14	=14
4a	rausch-
8.e	-ten
16e	zu-
4e	-sam-
8f#	-men
8f#	zur
=15	=15
4g	Tanz-
8.g	-me-
16g	-lo-
4g	-dei
4g	der
=16	=16
4f#	Strom
8.f#	und
16f#	die
4e	Win-
8e	-de
8e	mit
=17	=17
4d#	Klin-
8e	-gen
8e	und
8f#	Zi-
8f#}	-schen,}
8r	.
{8b	{da
=18	=18
4a	weht'
8.e	es
16e	im
4e	flu2ch-
8f#	-ti-
8f#	-gen
=19	=19
4g	Zu-
8.g	-ge
16g	her-
4g	-bei
4g	aus
=20	=20
4f#	Fel-
8.f#	-sen
16f#	und
4e	Ta-
8e}	-le,}
{8e	{aus
=21	=21
4d#	Wel-
8.e	-len
16e	und
8f#	Bu2s-
8f#	-chen,
8f#	und
8f#	im
=22	=22
4.g	Mon-
8g	-des-
4g}	-glanz,}
{4g	{ein
=23	=23
4.a	wei-
8a	-sser
2a	Kranz
=24	=24
4g	tanz-
8.g	-ten
16g	die
4g	El-
8g	-fen
8g	den
=25	=25
4.cc	Rei-
8cc	gen-
2cc}	-tanz.}
!! rest to measure 29
=29	=29
2r	.
4r	.
{4b	{Und
=30	=30
4a	mit-
8.e	-ten
16e	im
4e	Kreis
4f#	ein
=31	=31
4g	luf-
8.g	-ti-
16g	-ges
4g	Weib,
4g	die
=32	=32
4f#	Ko2-
8.f#	ni-
16f#	gin
4e	war
8e	es,
8e	ich
=33	=33
4d#	no2r-
8.e	-te
16e	sie
8f#	sin-
8f#}	-gen:}
4r	.
=34	=34
2r	.
4r	.
{4b	{"Lass
=35	=35
4b	ab
8.b	von
16b	dem
(8b	schwe-
8ee)	|
(8dn	-ren
8cc)	|
=36	=36
4b	ir-
8b	-dis-
8b	-chen
4b	Leib,
4b	lass
=37	=37
4b	ab
8b	von
8b	den
(8b	to2-
8e)	|
8dn	-rich-
8cc	-ten
=38	=38
4b	ir-
8b	-dis-
8b	-chen
8b	Din-
8b}	-gen!}
4r	.
!! rest to measure 40
=40	=40
*k[f#c#g#d#]	*
2r	.
4r	.
{8cc#	{Nur
8cc#	im
=41	=41
(4b	Mon-
8cc#)	|
8cc#	-den-
4b	-schein
4cc#	ist
=42	=42
4b	Le-
8b	-ben
8b	al-
4e}	-lein!}
{8ee	{Nur
8ee	im
=43	=43
4dd#	Trau2-
8.ee	-men
16ee	zu
4dd#	schwe-
8ee	-ben,
8ee	ein
=44	=44
4dd#	e-
8dd#	-wi-
8dd#	-ges
4g#}	Sein!}
{4ddn	{Ich
=45	=45
4cc#	bin's
8cc#	die
8cc#	in
4cc#	Tra2u-
8ccn	-men
8ccn	du
=46	=46
4.b	oft
8b	ge-
4b}	-sehn,}
{4b	{ich
=47	=47
4a	bin's,
8a	die
8a	als
4a#	Lieb-
8a#	-chen
8a#	du
=48	=48
4.g#	oft
8g#	be-
8g#	-san-
8g#}	-gen,}
8r	.
{8ddn	{ich
=49	=49
4cc#	bin
8.cc#	es,
16cc#	die
4cc#	El-
4ccn	-fen-
=50	=50
4.b	-ko2-
8b	-ki-
4b}	-gin,}
{4b	{du
=51	=51
4a	woll-
8.a	-test
16a	mich
4a#	schau-
8.a#	-en,
16a#	es
=52	=52
4g#	ist
8.g#	dir
16g#	ge-
8g#	-lun-
8g#}	-gen.}
{4g#	{Nun
=53	=53
4.c#	sollst
8c#	du
4c#	mein
4b	auf
=54	=54
4.b	e-
8b	-wig
4b}	sein,}
{4b	{komm
=55	=55
4.e	mit,
8e	komm
4e	mit
8ddn	in
8ddn	den
=56	=56
4.ddn	El-
8ddn	-fen-
[2ddn	-reihn!"
=57	=57
*k[f#]	*
2ddn]}	|}
4r	.
{4b	{Schon
=58	=58
4a	zo-
8e	-gen,
8e	schon
4e	flo-
8f#	-gen
8f#	sie
=59	=59
4g	all
8g	um
8g	mich
4g}	her,}
{4g	{da
=60	=60
4f#	weh-
8f#	-te
8f#	der
4e	Mor-
8e	-gen,
8e	da
=61	=61
4d#	bin
8d#	ich
8e	ge-
8f#	-ne-
8f#}	-sen.}
{(8g#	{Fahr'
8b)	|
=62	=62
*k[f#c#g#D#]	*
4b	wohl
8a	nun,
8a	du
4.a	El-
8f#	-fen-
=63	=63
4.g#	-ko2-
8g#	-ni-
8g#	-gin,
8e	jetzt
8.e	will
16e	ein
=64	=64
8.e	and-
16f#	-res
8g#	Lieb
8a	ich
(4b	mir-
8f#)	|
8f#	er-
=65	=65
2a	le-
4g#}	-sen;}
{4g#	{ohn'
=66	=66
4.a	Trug
8b	und
4cc#	Schein,
8d#	und
8d#	von
=67	=67
4.e	Her-
8f#	-zen
4g#	rein-
4g#	wird
=68	=68
4a	wohl
8.b	auch
16b	fu2r
4cc#	mich
8d#	eins
8d#	zu
=69	=69
4.e	fin-
8f#	den
4g#}	sein,}
{4b	{wird
=70	=70
4b	wohl
8.a	auch
16a	fu2r
4a	mich
8e	eins
8e	zu
=71	=71
4.g#	fin-
8f#	-den
4e}	sein.}
4r	.
==	==
*-	*-
